X:149
%%etbk:tnset id:52,pos:3,rep:3x,ant:
%%etbk:tnset id:182,pos:1,rep:2x,ant:
%%etbk:tnset id:507,pos:3,rep:3x,ant:
%%etbk:wsite http://www.thesession.org/tunes/display/410
%%etbk:color #c7dad4
%%etbk:pldat 2016-06-23T18:39,2016-06-22T15:36,2016-06-20T18:11,2016-06-16T18:14,2016-05-05T11:37,2016-05-04T14:46,2016-05-03T16:37,2016-05-02T18:21,2016-04-25T18:13,2016-04-09T14:54,2016-04-08T18:27,2016-04-07T15:52,2016-04-05T15:51,2016-04-04T18:50,2016-04-03T14:10,2016-04-02T14:01,2016-03-31T15:42,2016-03-30T16:20,2016-03-28T14:57,2016-03-11T15:31,2016-03-09T15:44,2016-03-08T16:16,2016-03-05T13:38,2016-02-26T17:19,2016-02-13T16:09,2016-02-08T18:55,2015-11-02T18:16,2015-10-29T18:10,2015-10-27T15:50,2015-10-24T13:10,2015-10-19T18:12,2015-10-07T15:53,2015-10-01T18:37,2015-06-24T18:58,2015-06-21T15:53,2015-06-16T17:02,2015-05-26T18:15,2015-04-23T18:28,2015-03-13T18:42,2015-03-11T16:53,2015-03-06T16:42,2015-02-22T16:33,2015-02-18T17:59,2015-02-09T19:37,2015-02-03T15:27,2015-02-02T19:34,2014-11-19T16:35,2014-11-06T18:50,2014-11-05T18:44,2014-11-04T15:48,2014-11-02T14:17,2014-10-29T15:24,2014-10-27T18:36,2014-10-19T15:03,2014-10-10T16:05,2014-08-21T19:30,2014-08-19T18:05,2014-08-05T17:48,2014-06-23T18:06,2014-06-11T16:12,2014-06-05T18:01,2014-06-03T15:15,2014-05-28T16:38,2014-04-09T16:37,2014-03-06T18:07,2014-03-04T19:14,2014-03-03T18:48,2014-03-02T16:30,2014-03-01T15:42,2014-02-26T16:27,2014-02-24T18:14,2014-02-23T11:18,2014-02-20T18:34,2014-02-19T16:12,2013-10-30T17:37,2013-10-29T17:09,2013-10-27T14:06,2013-10-17T18:57,2013-10-14T18:19,2013-10-11T18:31,2013-10-07T17:49
T: Old Copperplate, The
Z: Piano Box Version by Martin Fleischmann
H: Created 2013-02-19 /  Last Modified 2016-04-03
M: 4/4
L: 1/8
R: reel
K: Ador
|:"am"!2!A2 !1!E!2!A !4!c!1!A!1!A!2!e | !5!ag!2!e!1!d !3!c!1!A!2!F!4!A | "G"!3!G3!1!G !2!B!1!G !2!B!3!d | !5!g!4!e!3!d!2!c !1!B!2!A!1!G!3!B |
"am"!2!A3A !4!c!1!A!1!A!2!e | !5!age!1!d !3!c!1!A!2!B!1!G | !1!AB!3!c!1!d !2!efge | "em"!5!age!1!d "am"!3!c!1!A A2 :|
|: "am"!5!ag!2!eg a2eg | !5!age!1!d !3!c!1!AA2 | "G"!4!gf!2!ef g2!1!de | !4!ge!1!d!3!c !2!B!1!GG2 |
"am"!5!ageg a2eg | !5!age!1!d !3!c!1!A!2!B!1!G | !1!AB!3!c!4!d !2!efge | "em"!5!age!1!d "am"!3!c!1!AA2 :|


